X:164
%%topmargin 3cm
T:Orchill House
C:Nath. Gow
O:Scotland
B:Keith Norman MacDonald : "The Skye collection of the best reels & strathspeys extant" : 1887
Z:Ralph Palmer
R:Reel
M:C
L:1/8
K:Am
(E/^F/) | (G<A,)TE>B, {/B,}DG, G,(E^F) | (G<A,)TE>A, GA,A,A | G<A,E>B, DG, G,(E/^F/) |
(G/^F/E/F/) GB, {/B,}A,2 A, :| (e/^g/) | (aA) e>=g dG Ge/^g/ | (aA) e^g aA Ae/g/ |
(aA) e>=g dG Ge/^g/ | a>e {/f}g>B {/B}A2 Ae/^g/ | (aA) e=g dG G(e/^g/) |
(aA) ~e>d egab | (g/a/).b/.a/ (b/a/).g/.e/ (g/e/)(d/B/) Gc/B/ | (A/B/).d/.e/ (g/e/).d/.B/ A2 A |]
